build/assets/img/student-icon.svg

<svg width="67" height="67" viewBox="0 0 67 67" fill="none" xmlns="http://www.w3.org/2000/svg">
<path d="M60.4902 52.7074C59.765 48.3535 56.7122 44.7809 52.5236 43.3847L43.2258 40.2854V38.9032H41.0645V40.4993C39.9158 41.2634 36.6576 43.2258 33.5 43.2258C30.3423 43.2258 27.0842 41.2634 25.9355 40.4993V38.9032H23.7742V40.2854L14.4763 43.3847C10.2888 44.7809 7.23597 48.3535 6.50978 52.7074L4.12695 67H62.8719L60.4902 52.7074ZM24.6808 42.2619C25.9657 43.1296 29.6766 45.3871 33.5 45.3871C37.3233 45.3871 41.0342 43.1296 42.3191 42.2619L44.1962 42.8876L33.5 53.5849L22.8027 42.8876L24.6808 42.2619ZM32.4193 64.8387H16.3231L17.2849 55.221L15.1344 55.0059L14.151 64.8398H6.67944L8.64189 53.0651C9.23516 49.5022 11.7336 46.5801 15.1603 45.4368L15.6488 45.2736L32.4193 62.0442V64.8387ZM17.9398 44.5085L20.5106 43.6516L33.5 56.6409L46.4893 43.6516L49.0602 44.5085L33.5 60.0687L17.9398 44.5085ZM52.8489 64.8387L51.8655 55.0048L49.715 55.2199L50.6768 64.8376H34.5806V62.0431L51.3522 45.2715L51.8407 45.4346C55.2674 46.5769 57.7648 49.5 58.3591 53.0629L60.3205 64.8387H52.8489Z" fill="white"/>
<path d="M14.0483 23.7742C14.0483 22.3672 13.1417 21.1785 11.887 20.7311V11.8255L17.2903 15.6845V19.4786C15.9859 20.4663 15.129 22.016 15.129 23.7731C15.129 26.546 17.2362 28.8111 19.9292 29.1158C20.4803 31.0124 21.4983 32.7511 22.9334 34.1862L27.1479 38.4007C28.168 39.4219 29.5242 39.9839 30.968 39.9839H36.033C37.4756 39.9839 38.8329 39.4219 39.853 38.4018L44.0676 34.1873C45.5027 32.7522 46.5206 31.0124 47.0718 29.1169C49.7636 28.8122 51.8709 26.5471 51.8709 23.7742C51.8709 22.016 51.0139 20.4663 49.7096 19.4797V15.6856L57.2741 10.2823V6.7724L35.9865 0.0497097L31.3386 0L9.72574 6.7724V9.72581V10.2823V20.7322C8.47111 21.1785 7.56445 22.3672 7.56445 23.7742V28.0968H14.0483V23.7742ZM17.2903 23.7742C17.2903 22.3672 18.1969 21.1785 19.4515 20.7311V25.782C19.4515 26.1354 19.4721 26.4855 19.5023 26.8335C18.2218 26.4002 17.2903 25.1996 17.2903 23.7742ZM45.387 25.782C45.387 28.3799 44.3755 30.8222 42.5384 32.6593L38.3239 36.8738C37.7209 37.4768 36.8856 37.8226 36.0319 37.8226H30.9669C30.1132 37.8226 29.2789 37.4768 28.6749 36.8738L24.4603 32.6593C22.6232 30.8222 21.6118 28.3799 21.6118 25.782V19.711C24.2647 19.108 28.5182 18.371 33.4999 18.371C38.4731 18.371 42.7319 19.109 45.387 19.712V25.782ZM33.4999 16.2097C27.0658 16.2097 21.8527 17.367 19.4515 18.0111V15.933C21.361 15.3916 26.7783 14.0484 33.4999 14.0484C40.2053 14.0484 45.6356 15.3927 47.5483 15.933V18.01C45.1471 17.3671 39.9341 16.2097 33.4999 16.2097ZM47.4975 26.8324C47.5278 26.4855 47.5483 26.1354 47.5483 25.782V20.7311C48.8029 21.1785 49.7096 22.3672 49.7096 23.7742C49.7096 25.1996 48.7781 26.4002 47.4975 26.8324ZM11.887 8.35663L31.5051 2.16129H35.4937L55.1128 8.35663V9.16927L48.4366 13.9382C46.7087 13.4249 40.924 11.8871 33.4999 11.8871C26.0759 11.8871 20.2912 13.4249 18.5633 13.9382L11.887 9.16927V8.35663ZM11.887 25.9355H9.72574V23.7742C9.72574 23.1788 10.211 22.6936 10.8064 22.6936C11.4018 22.6936 11.887 23.1788 11.887 23.7742V25.9355Z" fill="white"/>
<path d="M14.048 30.2581H11.8867V36.7419H14.048V30.2581Z" fill="white"/>
<path d="M9.72575 30.2581H7.56445V36.7419H9.72575V30.2581Z" fill="white"/>
<path d="M31 24L26 24" stroke="white" stroke-width="2"/>
<path d="M41 24L36 24" stroke="white" stroke-width="2"/>
</svg>

<svg width="67" height="67" fill="none" xmlns="http://www.w3.org/2000/svg"><path d="M60.49 52.707a11.86 11.86 0 00-7.966-9.322l-9.298-3.1v-1.382h-2.161V40.5c-1.15.764-4.407 2.727-7.565 2.727-3.158 0-6.416-1.963-7.564-2.727v-1.596h-2.162v1.382l-9.298 3.1a11.863 11.863 0 00-7.966 9.322L4.127 67h58.745L60.49 52.707zM24.68 42.262c1.286.868 4.997 3.125 8.82 3.125 3.823 0 7.534-2.257 8.82-3.125l1.876.626L33.5 53.585 22.803 42.888l1.878-.626zm7.74 22.577H16.322l.962-9.618-2.15-.215-.984 9.834H6.679l1.963-11.775a9.706 9.706 0 016.518-7.628l.489-.163 16.77 16.77v2.795zm-14.48-20.33l2.57-.857L33.5 56.64l12.99-12.99 2.57.857-15.56 15.56-15.56-15.56zm34.909 20.33l-.983-9.834-2.151.215.962 9.618H34.58v-2.795l16.771-16.771.489.163a9.706 9.706 0 016.518 7.628l1.962 11.776h-7.472z" fill="#fff"/><path d="M14.048 23.774a3.237 3.237 0 00-2.161-3.043v-8.906l5.403 3.86v3.794c-1.304.987-2.161 2.537-2.161 4.294 0 2.773 2.107 5.038 4.8 5.343a11.813 11.813 0 003.004 5.07l4.215 4.215a5.363 5.363 0 003.82 1.583h5.065c1.443 0 2.8-.562 3.82-1.582l4.215-4.215a11.82 11.82 0 003.004-5.07c2.692-.305 4.799-2.57 4.799-5.343 0-1.758-.857-3.308-2.161-4.294v-3.794l7.564-5.404v-3.51L35.986.05 31.34 0 9.726 6.772v13.96a3.235 3.235 0 00-2.162 3.042v4.323h6.484v-4.323zm3.242 0c0-1.407.907-2.596 2.162-3.043v5.051c0 .353.02.703.05 1.052-1.28-.434-2.212-1.634-2.212-3.06zm28.097 2.008a9.662 9.662 0 01-2.849 6.877l-4.214 4.215a3.263 3.263 0 01-2.292.949h-5.065a3.265 3.265 0 01-2.292-.95L24.46 32.66a9.662 9.662 0 01-2.848-6.877v-6.071a54.538 54.538 0 0111.888-1.34c4.973 0 9.232.738 11.887 1.341v6.07zM33.5 16.21c-6.434 0-11.647 1.157-14.049 1.801v-2.078c1.91-.541 7.327-1.885 14.049-1.885 6.705 0 12.136 1.345 14.048 1.885v2.077c-2.4-.643-7.614-1.8-14.048-1.8zm13.998 10.622c.03-.347.05-.697.05-1.05v-5.05a3.238 3.238 0 012.162 3.042 3.235 3.235 0 01-2.212 3.058zM11.887 8.357L31.505 2.16h3.989l19.619 6.196v.812l-6.676 4.77c-1.728-.514-7.513-2.052-14.937-2.052-7.424 0-13.209 1.538-14.937 2.051L11.887 9.17v-.812zm0 17.579H9.726v-2.162c0-.595.485-1.08 1.08-1.08.596 0 1.081.485 1.081 1.08v2.162z" fill="#fff"/><path d="M14.048 30.258h-2.161v6.484h2.161v-6.484zm-4.322 0H7.564v6.484h2.162v-6.484z" fill="#fff"/><path d="M31 24h-5m15 0h-5" stroke="#fff" stroke-width="2"/></svg>
